layouts/partials/icon/archive.svg

<svg xmlns="http://www.w3.org/2000/svg" width="24" height="24" viewBox="0 0 24 24"><path fill="currentColor" d="M24 7h-1v16h-22v-16h-1v-6h24v6zm-2 0h-20v15h20v-15zm-6 8h-8v-4h8v4zm-1-3h-6v2h6v-2zm8-10h-22v4h22v-4z"/></svg>

<svg xmlns="http://www.w3.org/2000/svg" width="24" height="24" viewBox="0 0 24 24">
    <path fill="currentColor" d="M24 7h-1v16H1V7H0V1h24zm-2 0H2v15h20zm-6 8H8v-4h8zm-1-3H9v2h6zm8-10H1v4h22z"/>
</svg>
